actions/22x22-dark/draw-star.svg

<svg viewBox="0 0 22 22" xmlns="http://www.w3.org/2000/svg"><path d="m12 4-2.4726562 5.2675781-5.5273438.8437499 4 4.09961-.9433594 5.789062 4.9433594-2.732422 4.943359 2.732422-.943359-5.789062 4-4.09961-5.527344-.8437499z" fill="#f2f2f2"/></svg>

<svg xmlns="http://www.w3.org/2000/svg" viewBox="0 0 22 22">
  <defs id="defs3051">
    <style type="text/css" id="current-color-scheme">
      .ColorScheme-Text {
        color:#f2f2f2
      }
      </style>
  </defs>
 <path 
     style="fill:currentColor;fill-opacity:1;stroke:none"      
        d="M 12,4 9.5273438,9.2675781 4,10.111328 8,14.210938 7.0566406,20 12,17.267578 16.943359,20 16,14.210938 20,10.111328 14.472656,9.2675781 Z"
	 class="ColorScheme-Text"
     />
</svg>
